build/img/sprite_auto.svg

<svg xmlns="http://www.w3.org/2000/svg" xmlns:xlink="http://www.w3.org/1999/xlink"><symbol id="icon-acc-arrow"><path d="M16 9L8.5 1 1 9" stroke="#A87B62"/></symbol><symbol id="icon-arrow"><path d="M0 5.5h29m0 0L23.514 1M29 5.5L23.514 10" stroke="#A87B62"/></symbol><symbol id="icon-burger" viewBox="0 0 25 18">
<path d="M0 1H25M0 9H25M0 17H25" stroke-width="2"/>
</symbol><symbol id="icon-cart" viewBox="0 0 20 18">
<path d="M14 5C14 6.06087 13.5786 7.07828 12.8284 7.82843C12.0783 8.57857 11.0609 9 10 9C8.93913 9 7.92172 8.57857 7.17157 7.82843C6.42143 7.07828 6 6.06087 6 5M1 1H19V17H1V1Z" stroke-width="2" stroke-linecap="round" stroke-linejoin="round"/>
</symbol><symbol id="icon-close" viewBox="0 0 14 14">
<path d="M7 5.44469L12.4447 0L14 1.55531L8.55531 7L14 12.4447L12.4447 14L7 8.55531L1.55531 14L0 12.4447L5.44469 7L0 1.55531L1.55531 0L7 5.44469Z"/>
</symbol><symbol id="icon-fb"><path d="M5.333 8.625h1.905l.762-3H5.333v-1.5c0-.772 0-1.5 1.524-1.5H8V.105A21.797 21.797 0 005.823 0C3.755 0 2.286 1.243 2.286 3.525v2.1H0v3h2.286V15h3.047V8.625z" fill="#fff"/></symbol><symbol id="icon-inst"><path d="M7.5 0c2.038 0 2.292.007 3.091.045.8.038 1.343.163 1.822.349.495.19.912.448 1.329.864.38.375.676.829.864 1.33.185.477.312 1.022.349 1.82.035.8.045 1.054.045 3.092 0 2.038-.008 2.292-.045 3.091-.037.8-.164 1.343-.349 1.822-.188.5-.483.954-.864 1.329a3.687 3.687 0 01-1.33.864c-.477.185-1.022.312-1.82.349-.8.035-1.054.045-3.092.045-2.038 0-2.292-.008-3.091-.045-.8-.037-1.343-.164-1.821-.349a3.668 3.668 0 01-1.33-.864 3.678 3.678 0 01-.864-1.33c-.186-.477-.311-1.022-.349-1.82C.01 9.791 0 9.537 0 7.5c0-2.038.007-2.292.045-3.091.038-.8.163-1.343.349-1.821.187-.501.483-.955.864-1.33a3.673 3.673 0 011.33-.864C3.066.208 3.608.083 4.407.045 5.208.01 5.463 0 7.5 0zm0 3.75a3.75 3.75 0 100 7.5 3.75 3.75 0 000-7.5zm4.875-.188a.938.938 0 10-1.875 0 .938.938 0 001.875 0zM7.5 5.25a2.25 2.25 0 110 4.5 2.25 2.25 0 010-4.5z" fill="#fff"/></symbol><symbol id="icon-minus" viewBox="0 0 14 2">
<path d="M0 0H14V2H0V0Z" fill="#9B9997"/>
</symbol><symbol id="icon-pint"><path d="M8.525.07a7.502 7.502 0 00-4.026 14.307 5.818 5.818 0 01.122-1.72c.139-.629.972-4.097.972-4.097a2.804 2.804 0 01-.243-1.183c0-1.113.643-1.944 1.442-1.944A1 1 0 017.8 6.563c0 .676-.434 1.697-.66 2.656a1.158 1.158 0 001.18 1.442c1.424 0 2.378-1.823 2.378-3.976 0-1.65-1.092-2.886-3.107-2.886a3.56 3.56 0 00-3.697 3.596 2.22 2.22 0 00.486 1.477.36.36 0 01.121.416c-.034.138-.121.467-.156.588a.265.265 0 01-.382.19c-1.038-.415-1.527-1.558-1.527-2.862 0-2.135 1.788-4.691 5.365-4.691 2.847 0 4.74 2.083 4.74 4.31 0 2.932-1.633 5.136-4.045 5.136a2.145 2.145 0 01-1.84-.934s-.434 1.736-.52 2.065a6.021 6.021 0 01-.764 1.598c.692.21 1.411.315 2.134.312a7.493 7.493 0 007.497-7.502A7.502 7.502 0 008.526.071L8.525.07z" fill="#fff"/></symbol><symbol id="icon-plus" viewBox="0 0 14 14">
<path d="M0 6.125H14V7.875H0V6.125Z" fill="#9B9997"/>
<path d="M6.125 14V0H7.875V14H6.125Z" fill="#9B9997"/>
</symbol><symbol id="icon-search-white"><path d="M11.048 10.074L14 13.024l-.975.976-2.951-2.952A6.205 6.205 0 010 6.202 6.205 6.205 0 016.203 0a6.205 6.205 0 014.845 10.074zm-1.382-.512a4.808 4.808 0 001.36-3.36 4.823 4.823 0 00-4.823-4.824 4.822 4.822 0 00-4.825 4.825 4.823 4.823 0 004.825 4.824 4.808 4.808 0 003.36-1.361l.103-.104z" fill="#ffffff"/></symbol><symbol id="icon-search"><path d="M11.048 10.074L14 13.024l-.975.976-2.951-2.952A6.205 6.205 0 010 6.202 6.205 6.205 0 016.203 0a6.205 6.205 0 014.845 10.074zm-1.382-.512a4.808 4.808 0 001.36-3.36 4.823 4.823 0 00-4.823-4.824 4.822 4.822 0 00-4.825 4.825 4.823 4.823 0 004.825 4.824 4.808 4.808 0 003.36-1.361l.103-.104z" fill="#000"/></symbol><symbol id="icon-tw"><path d="M15 1.543a5.875 5.875 0 01-1.768.516A3.263 3.263 0 0014.586.244a5.925 5.925 0 01-1.955.796 3.025 3.025 0 00-1.746-.996 2.913 2.913 0 00-1.954.344 3.206 3.206 0 00-1.353 1.543 3.48 3.48 0 00-.19 2.101 8.318 8.318 0 01-3.514-.995A8.868 8.868 0 011.044.604a3.44 3.44 0 00-.416 1.65c0 1.137.543 2.142 1.368 2.73a2.924 2.924 0 01-1.393-.41v.04c0 .758.246 1.492.696 2.079.45.586 1.076.988 1.773 1.139-.454.13-.93.15-1.391.056a3.287 3.287 0 001.094 1.631 2.958 2.958 0 001.78.648 6.03 6.03 0 01-2.15 1.162c-.782.233-1.6.3-2.405.196A8.318 8.318 0 004.717 13c5.661 0 8.757-4.999 8.757-9.334 0-.141-.004-.284-.01-.424A6.496 6.496 0 0015 1.544z" fill="#fff"/></symbol><symbol id="icon-white-arrow"><path d="M0 5.5h29m0 0L23.514 1M29 5.5L23.514 10" stroke="#fff"/></symbol></svg>

<svg xmlns="http://www.w3.org/2000/svg" xmlns:xlink="http://www.w3.org/1999/xlink"><symbol id="icon-acc-arrow"><path d="M16 9L8.5 1 1 9" stroke="#A87B62"/></symbol><symbol id="icon-arrow"><path d="M0 5.5h29m0 0L23.514 1M29 5.5L23.514 10" stroke="#A87B62"/></symbol><symbol id="icon-burger"><path d="M0 1h25M0 9h25M0 17h25"/></symbol><symbol id="icon-cart"><path d="M14 5a4 4 0 11-8 0M1 1h18v16H1V1z"/></symbol><symbol id="icon-close"><path d="M7 5.445L12.445 0 14 1.555 8.555 7 14 12.445 12.445 14 7 8.555 1.555 14 0 12.445 5.445 7 0 1.555 1.555 0 7 5.445z"/></symbol><symbol id="icon-fb"><path d="M5.333 8.625h1.905l.762-3H5.333v-1.5c0-.772 0-1.5 1.524-1.5H8V.105A21.797 21.797 0 005.823 0C3.755 0 2.286 1.243 2.286 3.525v2.1H0v3h2.286V15h3.047V8.625z" fill="#fff"/></symbol><symbol id="icon-inst"><path d="M7.5 0c2.038 0 2.292.007 3.091.045.8.038 1.343.163 1.822.349.495.19.912.448 1.329.864.38.375.676.829.864 1.33.185.477.312 1.022.349 1.82.035.8.045 1.054.045 3.092 0 2.038-.008 2.292-.045 3.091-.037.8-.164 1.343-.349 1.822-.188.5-.483.954-.864 1.329a3.687 3.687 0 01-1.33.864c-.477.185-1.022.312-1.82.349-.8.035-1.054.045-3.092.045-2.038 0-2.292-.008-3.091-.045-.8-.037-1.343-.164-1.821-.349a3.668 3.668 0 01-1.33-.864 3.678 3.678 0 01-.864-1.33c-.186-.477-.311-1.022-.349-1.82C.01 9.791 0 9.537 0 7.5c0-2.038.007-2.292.045-3.091.038-.8.163-1.343.349-1.821.187-.501.483-.955.864-1.33a3.673 3.673 0 011.33-.864C3.066.208 3.608.083 4.407.045 5.208.01 5.463 0 7.5 0zm0 3.75a3.75 3.75 0 100 7.5 3.75 3.75 0 000-7.5zm4.875-.188a.938.938 0 10-1.875 0 .938.938 0 001.875 0zM7.5 5.25a2.25 2.25 0 110 4.5 2.25 2.25 0 010-4.5z" fill="#fff"/></symbol><symbol id="icon-minus"><path d="M0 0h14v2H0V0z" fill="#9B9997"/></symbol><symbol id="icon-pint"><path d="M8.525.07a7.502 7.502 0 00-4.026 14.307 5.818 5.818 0 01.122-1.72c.139-.629.972-4.097.972-4.097a2.804 2.804 0 01-.243-1.183c0-1.113.643-1.944 1.442-1.944A1 1 0 017.8 6.563c0 .676-.434 1.697-.66 2.656a1.158 1.158 0 001.18 1.442c1.424 0 2.378-1.823 2.378-3.976 0-1.65-1.092-2.886-3.107-2.886a3.56 3.56 0 00-3.697 3.596 2.22 2.22 0 00.486 1.477.36.36 0 01.121.416c-.034.138-.121.467-.156.588a.265.265 0 01-.382.19c-1.038-.415-1.527-1.558-1.527-2.862 0-2.135 1.788-4.691 5.365-4.691 2.847 0 4.74 2.083 4.74 4.31 0 2.932-1.633 5.136-4.045 5.136a2.145 2.145 0 01-1.84-.934s-.434 1.736-.52 2.065a6.021 6.021 0 01-.764 1.598c.692.21 1.411.315 2.134.312a7.493 7.493 0 007.497-7.502A7.502 7.502 0 008.526.071L8.525.07z" fill="#fff"/></symbol><symbol id="icon-plus"><path d="M0 6.125h14v1.75H0v-1.75z" fill="#9B9997"/><path d="M6.125 14V0h1.75v14h-1.75z" fill="#9B9997"/></symbol><symbol id="icon-search-white"><path d="M11.048 10.074L14 13.024l-.975.976-2.951-2.952A6.205 6.205 0 010 6.202 6.205 6.205 0 016.203 0a6.205 6.205 0 014.845 10.074zm-1.382-.512a4.808 4.808 0 001.36-3.36 4.823 4.823 0 00-4.823-4.824 4.822 4.822 0 00-4.825 4.825 4.823 4.823 0 004.825 4.824 4.808 4.808 0 003.36-1.361l.103-.104z" fill="#fff"/></symbol><symbol id="icon-search"><path d="M11.048 10.074L14 13.024l-.975.976-2.951-2.952A6.205 6.205 0 010 6.202 6.205 6.205 0 016.203 0a6.205 6.205 0 014.845 10.074zm-1.382-.512a4.808 4.808 0 001.36-3.36 4.823 4.823 0 00-4.823-4.824 4.822 4.822 0 00-4.825 4.825 4.823 4.823 0 004.825 4.824 4.808 4.808 0 003.36-1.361l.103-.104z" fill="#000"/></symbol><symbol id="icon-tw"><path d="M15 1.543a5.875 5.875 0 01-1.768.516A3.263 3.263 0 0014.586.244a5.925 5.925 0 01-1.955.796 3.025 3.025 0 00-1.746-.996 2.913 2.913 0 00-1.954.344 3.206 3.206 0 00-1.353 1.543 3.48 3.48 0 00-.19 2.101 8.318 8.318 0 01-3.514-.995A8.868 8.868 0 011.044.604a3.44 3.44 0 00-.416 1.65c0 1.137.543 2.142 1.368 2.73a2.924 2.924 0 01-1.393-.41v.04c0 .758.246 1.492.696 2.079.45.586 1.076.988 1.773 1.139-.454.13-.93.15-1.391.056a3.287 3.287 0 001.094 1.631 2.958 2.958 0 001.78.648 6.03 6.03 0 01-2.15 1.162c-.782.233-1.6.3-2.405.196A8.318 8.318 0 004.717 13c5.661 0 8.757-4.999 8.757-9.334 0-.141-.004-.284-.01-.424A6.496 6.496 0 0015 1.544z" fill="#fff"/></symbol><symbol id="icon-white-arrow"><path d="M0 5.5h29m0 0L23.514 1M29 5.5L23.514 10" stroke="#fff"/></symbol></svg>
